X: 42
T: Tobin's Favourite
M: 6/8
L: 1/8
R: jig
K: Dmaj
AF|DFA dcd|ecA cde|fef gfg|ecA GFE|
DFA dcd|ecA cde|faf gec|edc d3:||
A|dfa agf|efg efg|fef gfg|ecA GFE|
DFA dcd|ecA cde|faf gec|edc d:||

